src/assets/img/Brand Logo.svg

<svg width="199" height="50" viewBox="0 0 199 50" fill="none" xmlns="http://www.w3.org/2000/svg">
<g clip-path="url(#clip0_322_0)">
<path d="M26.3593 13.8277C27.1249 12.923 28.0296 12.4706 29.0735 12.4706C30.0479 12.4706 30.9178 12.8534 31.6834 13.6189C32.4837 14.3497 32.8839 15.2022 32.8839 16.1766C32.8839 17.0465 32.5533 17.8643 31.8922 18.6298L20.4611 32.2009V45.8243C20.4611 47.1466 20.0783 48.1557 19.3128 48.8517C18.5472 49.5476 17.5903 49.8956 16.4419 49.8956C15.224 49.8956 14.2323 49.5476 13.4667 48.8517C12.7012 48.1557 12.3184 47.1466 12.3184 45.8243V32.2009L0.991737 18.6298C0.330579 17.9339 0 17.1161 0 16.1766C0 15.2022 0.365377 14.3497 1.09613 13.6189C1.86168 12.8534 2.73163 12.4706 3.70596 12.4706C4.7499 12.4706 5.65464 12.923 6.42019 13.8277L16.3897 25.9895L26.3593 13.8277Z" fill="#F26333"/>
<path d="M52.5445 23.4319C53.7624 23.4319 54.7194 23.7625 55.4153 24.4236C56.1461 25.0848 56.5114 25.9895 56.5114 27.1379V46.294C56.5114 47.3728 56.1287 48.2427 55.3631 48.9039C54.6324 49.565 53.6754 49.8956 52.4923 49.8956C51.3788 49.8956 50.4914 49.5824 49.8303 48.9561C49.1691 48.3297 48.8385 47.4946 48.8385 46.4506V45.9287C48.0382 47.251 46.9769 48.2601 45.6545 48.9561C44.367 49.652 42.9055 50 41.27 50C38.0338 50 35.6154 49.1127 34.0147 47.338C32.4488 45.5285 31.6658 42.8143 31.6658 39.1953V27.1379C31.6658 25.9895 32.0138 25.0848 32.7098 24.4236C33.4405 23.7625 34.4149 23.4319 35.6328 23.4319C36.8507 23.4319 37.8076 23.7625 38.5036 24.4236C39.1996 25.0848 39.5475 25.9895 39.5475 27.1379V39.3519C39.5475 40.883 39.8607 42.0139 40.4871 42.7447C41.1482 43.4754 42.14 43.8408 43.4623 43.8408C44.9934 43.8408 46.2287 43.3188 47.1682 42.2749C48.1426 41.231 48.6297 39.8564 48.6297 38.1514V27.1379C48.6297 25.9895 48.9777 25.0848 49.6737 24.4236C50.3696 23.7625 51.3266 23.4319 52.5445 23.4319Z" fill="#F26333"/>
<path d="M94.1383 23.3275C96.9221 23.3275 99.0622 24.1801 100.558 25.8851C102.055 27.5554 102.803 30.3045 102.803 34.1322V46.1896C102.803 47.4076 102.438 48.3297 101.707 48.9561C100.976 49.5824 100.037 49.8956 98.8882 49.8956C97.7747 49.8956 96.8351 49.5824 96.0696 48.9561C95.304 48.3297 94.9212 47.4076 94.9212 46.1896V34.0278C94.9212 32.3575 94.6255 31.1918 94.0339 30.5306C93.4771 29.8347 92.6072 29.4867 91.4241 29.4867C89.9626 29.4867 88.7968 29.9913 87.9269 31.0004C87.057 32.0096 86.622 33.4189 86.622 35.2283V46.1896C86.622 47.4076 86.2566 48.3297 85.5259 48.9561C84.7951 49.5824 83.8556 49.8956 82.7072 49.8956C81.5937 49.8956 80.6542 49.5824 79.8886 48.9561C79.1231 48.3297 78.7403 47.4076 78.7403 46.1896V34.0278C78.7403 32.3575 78.4445 31.1918 77.8529 30.5306C77.2962 29.8347 76.4262 29.4867 75.2431 29.4867C73.7816 29.4867 72.6159 29.9913 71.7459 31.0004C70.876 32.0096 70.441 33.4189 70.441 35.2283V46.1896C70.441 47.4076 70.0582 48.3297 69.2927 48.9561C68.5619 49.5824 67.6398 49.8956 66.5263 49.8956C65.4127 49.8956 64.4732 49.5824 63.7076 48.9561C62.9421 48.3297 62.5593 47.4076 62.5593 46.1896V27.0335C62.5593 25.8851 62.9421 24.9978 63.7076 24.3714C64.508 23.7451 65.4649 23.4319 66.5785 23.4319C67.6224 23.4319 68.4923 23.7451 69.1883 24.3714C69.8843 24.963 70.2322 25.7981 70.2322 26.8769V27.3988C71.0674 26.0765 72.1461 25.0674 73.4684 24.3714C74.8255 23.6755 76.3566 23.3275 78.0617 23.3275C79.906 23.3275 81.4545 23.7103 82.7072 24.4758C83.9948 25.2066 84.9865 26.4071 85.6824 28.0774C86.4828 26.6159 87.6137 25.4676 89.0752 24.6324C90.5715 23.7625 92.2592 23.3275 94.1383 23.3275Z" fill="#F26333"/>
<path d="M140.32 23.3275C143.104 23.3275 145.244 24.1801 146.74 25.8851C148.237 27.5554 148.985 30.3045 148.985 34.1322V46.1896C148.985 47.4076 148.619 48.3297 147.889 48.9561C147.158 49.5824 146.218 49.8956 145.07 49.8956C143.956 49.8956 143.017 49.5824 142.251 48.9561C141.486 48.3297 141.103 47.4076 141.103 46.1896V34.0278C141.103 32.3575 140.807 31.1918 140.216 30.5306C139.659 29.8347 138.789 29.4867 137.606 29.4867C136.144 29.4867 134.979 29.9913 134.109 31.0004C133.239 32.0096 132.804 33.4189 132.804 35.2283V46.1896C132.804 47.4076 132.438 48.3297 131.708 48.9561C130.977 49.5824 130.037 49.8956 128.889 49.8956C127.776 49.8956 126.836 49.5824 126.07 48.9561C125.305 48.3297 124.922 47.4076 124.922 46.1896V34.0278C124.922 32.3575 124.626 31.1918 124.035 30.5306C123.478 29.8347 122.608 29.4867 121.425 29.4867C119.963 29.4867 118.798 29.9913 117.928 31.0004C117.058 32.0096 116.623 33.4189 116.623 35.2283V46.1896C116.623 47.4076 116.24 48.3297 115.475 48.9561C114.744 49.5824 113.822 49.8956 112.708 49.8956C111.595 49.8956 110.655 49.5824 109.889 48.9561C109.124 48.3297 108.741 47.4076 108.741 46.1896V27.0335C108.741 25.8851 109.124 24.9978 109.889 24.3714C110.69 23.7451 111.647 23.4319 112.76 23.4319C113.804 23.4319 114.674 23.7451 115.37 24.3714C116.066 24.963 116.414 25.7981 116.414 26.8769V27.3988C117.249 26.0765 118.328 25.0674 119.65 24.3714C121.007 23.6755 122.538 23.3275 124.244 23.3275C126.088 23.3275 127.636 23.7103 128.889 24.4758C130.177 25.2066 131.168 26.4071 131.864 28.0774C132.665 26.6159 133.796 25.4676 135.257 24.6324C136.753 23.7625 138.441 23.3275 140.32 23.3275Z" fill="#F26333"/>
<path d="M158.89 49.8956C157.742 49.8956 156.785 49.5824 156.019 48.9561C155.288 48.3297 154.923 47.4076 154.923 46.1896V27.1379C154.923 25.9199 155.306 24.9978 156.071 24.3714C156.837 23.7451 157.776 23.4319 158.89 23.4319C160.003 23.4319 160.926 23.7451 161.656 24.3714C162.422 24.9978 162.805 25.9199 162.805 27.1379V46.1896C162.805 47.4076 162.422 48.3297 161.656 48.9561C160.926 49.5824 160.003 49.8956 158.89 49.8956ZM158.89 19.2562C157.498 19.2562 156.402 18.9082 155.601 18.2122C154.801 17.4815 154.401 16.5071 154.401 15.2892C154.401 14.0713 154.801 13.1144 155.601 12.4184C156.402 11.7224 157.498 11.3745 158.89 11.3745C160.247 11.3745 161.326 11.7398 162.126 12.4706C162.961 13.1666 163.379 14.1061 163.379 15.2892C163.379 16.5071 162.979 17.4815 162.178 18.2122C161.378 18.9082 160.282 19.2562 158.89 19.2562Z" fill="#F26333"/>
<path d="M189.404 41.9617C190.1 41.9617 190.657 42.2401 191.074 42.7969C191.527 43.3536 191.753 44.067 191.753 44.9369C191.753 45.5285 191.579 46.0852 191.231 46.6072C190.883 47.0944 190.396 47.512 189.77 47.8599C188.586 48.4863 187.212 49.0083 185.646 49.4258C184.08 49.8086 182.636 50 181.314 50C178.53 50 176.094 49.4606 174.006 48.3819C171.953 47.3032 170.37 45.7721 169.256 43.7886C168.143 41.7703 167.586 39.4041 167.586 36.6898C167.586 34.08 168.125 31.766 169.204 29.7477C170.283 27.7294 171.779 26.1635 173.693 25.05C175.607 23.9017 177.782 23.3275 180.218 23.3275C182.549 23.3275 184.585 23.8495 186.325 24.8934C188.099 25.9025 189.474 27.364 190.448 29.2779C191.422 31.157 191.91 33.3667 191.91 35.9069C191.91 36.6725 191.718 37.264 191.335 37.6816C190.987 38.0644 190.483 38.2558 189.822 38.2558H175.207C175.45 40.3088 176.077 41.8051 177.086 42.7447C178.095 43.6494 179.539 44.1018 181.418 44.1018C182.427 44.1018 183.332 43.98 184.132 43.7364C184.933 43.4928 185.82 43.1622 186.794 42.7447C187.281 42.5359 187.751 42.3619 188.204 42.2227C188.656 42.0487 189.056 41.9617 189.404 41.9617ZM180.426 28.756C178.93 28.756 177.729 29.2431 176.825 30.2175C175.92 31.157 175.381 32.5315 175.207 34.341H185.281C185.176 32.4967 184.706 31.1048 183.871 30.1653C183.071 29.2257 181.923 28.756 180.426 28.756Z" fill="#F26333"/>
<path d="M193.53 17.6346L180.283 14.4672C180.04 14.4089 179.795 14.5593 179.736 14.8028L179.426 16.0903C179.311 16.572 179.39 17.0697 179.649 17.4918C179.908 17.9145 180.315 18.2103 180.797 18.3255L191.325 20.8427C192.319 21.0803 193.32 20.4652 193.558 19.4715L193.866 18.1818C193.925 17.9377 193.774 17.6929 193.53 17.6346Z" fill="#F26333"/>
<path d="M195.143 3.07843C194.872 3.01377 194.588 2.97451 194.281 2.95896C193.552 1.53892 192.264 0.52235 190.707 0.150051C187.784 -0.548757 184.838 1.26026 184.139 4.1829C184.081 4.42658 183.836 4.57726 183.592 4.51898C183.348 4.46072 183.197 4.2154 183.256 3.97168C183.484 3.01543 183.926 2.14283 184.567 1.37835C184.681 1.24241 184.706 1.0526 184.63 0.89225C184.554 0.732766 184.392 0.631036 184.215 0.632021C181.915 0.65449 179.938 2.22537 179.406 4.45187C178.967 6.28757 179.603 8.20388 181.031 9.41759L180.16 13.0366C180.132 13.1535 180.152 13.2771 180.215 13.3801C180.278 13.4828 180.379 13.5562 180.496 13.5843L193.741 16.7511C193.985 16.8095 194.23 16.6592 194.288 16.415L195.156 12.788C196.973 12.3479 198.402 10.9281 198.839 9.09848C199.48 6.41955 197.821 3.71897 195.143 3.07843ZM184.52 11.6391C184.422 11.6867 184.315 11.6958 184.217 11.6723C184.089 11.6417 183.975 11.5562 183.913 11.4292C183.81 11.2162 182.911 9.31784 183.189 8.15799C183.247 7.91385 183.492 7.76353 183.736 7.82191C183.98 7.88028 184.13 8.12507 184.072 8.3692C183.919 9.00845 184.395 10.3415 184.73 11.0318C184.84 11.2576 184.746 11.5293 184.52 11.6391ZM188.297 12.1809C188.238 12.425 187.994 12.5754 187.75 12.517C187.505 12.4586 187.355 12.2138 187.413 11.9697L188.047 9.31964C188.105 9.07551 188.35 8.92519 188.594 8.98356C188.839 9.04194 188.989 9.28673 188.93 9.53086L188.297 12.1809ZM191.663 13.2822C191.55 13.3674 191.411 13.3924 191.283 13.3618C191.184 13.3382 191.093 13.2817 191.027 13.1948C190.876 12.9949 190.914 12.7101 191.114 12.5586C191.726 12.0934 192.753 11.1184 192.906 10.4813C192.964 10.2372 193.209 10.0868 193.453 10.1452C193.697 10.2036 193.847 10.4484 193.789 10.6925C193.512 11.8523 191.852 13.1389 191.663 13.2822Z" fill="#F26333"/>
</g>
<defs>
<clipPath id="clip0_322_0">
<rect width="198.977" height="50" fill="white"/>
</clipPath>
</defs>
</svg>

<svg xmlns="http://www.w3.org/2000/svg" width="199" height="50" fill="none" xmlns:v="https://vecta.io/nano"><g clip-path="url(#A)" fill="#f26333"><path d="M26.359 13.828c.766-.905 1.67-1.357 2.714-1.357.974 0 1.844.383 2.61 1.148.8.731 1.2 1.583 1.2 2.558 0 .87-.331 1.688-.992 2.453l-11.43 13.571v13.623c0 1.322-.383 2.331-1.148 3.027s-1.723 1.044-2.871 1.044c-1.218 0-2.21-.348-2.975-1.044s-1.148-1.705-1.148-3.027V32.201L.992 18.63C.331 17.934 0 17.116 0 16.177c0-.974.365-1.827 1.096-2.558.766-.765 1.636-1.148 2.61-1.148 1.044 0 1.949.452 2.714 1.357l9.97 12.162 9.97-12.162zm26.186 9.604c1.218 0 2.175.331 2.871.992.731.661 1.096 1.566 1.096 2.714v19.156c0 1.079-.383 1.949-1.148 2.61-.731.661-1.688.992-2.871.992-1.114 0-2.001-.313-2.662-.94s-.992-1.462-.992-2.505v-.522c-.8 1.322-1.862 2.331-3.184 3.027C44.367 49.652 42.906 50 41.27 50c-3.236 0-5.655-.887-7.255-2.662-1.566-1.809-2.349-4.524-2.349-8.143V27.138c0-1.148.348-2.053 1.044-2.714.731-.661 1.705-.992 2.923-.992s2.175.331 2.871.992 1.044 1.566 1.044 2.714v12.214c0 1.531.313 2.662.94 3.393.661.731 1.653 1.096 2.975 1.096 1.531 0 2.766-.522 3.706-1.566.974-1.044 1.462-2.419 1.462-4.123V27.138c0-1.148.348-2.053 1.044-2.714s1.653-.992 2.871-.992zm41.593-.104c2.784 0 4.924.853 6.42 2.558 1.497 1.67 2.245 4.419 2.245 8.247V46.19c0 1.218-.365 2.14-1.096 2.767s-1.67.94-2.819.94c-1.114 0-2.053-.313-2.819-.94s-1.148-1.548-1.148-2.767V34.028c0-1.67-.296-2.836-.887-3.497-.557-.696-1.427-1.044-2.61-1.044-1.462 0-2.627.505-3.497 1.514s-1.305 2.419-1.305 4.228V46.19c0 1.218-.365 2.14-1.096 2.767s-1.67.94-2.819.94c-1.114 0-2.053-.313-2.819-.94s-1.148-1.548-1.148-2.767V34.028c0-1.67-.296-2.836-.887-3.497-.557-.696-1.427-1.044-2.61-1.044-1.462 0-2.627.505-3.497 1.514s-1.305 2.419-1.305 4.228V46.19c0 1.218-.383 2.14-1.148 2.767-.731.626-1.653.94-2.766.94s-2.053-.313-2.819-.94-1.148-1.548-1.148-2.767V27.034c0-1.148.383-2.036 1.148-2.662.8-.626 1.757-.94 2.871-.94 1.044 0 1.914.313 2.61.94.696.592 1.044 1.427 1.044 2.505v.522c.835-1.322 1.914-2.331 3.236-3.027 1.357-.696 2.888-1.044 4.593-1.044 1.844 0 3.393.383 4.645 1.148 1.288.731 2.279 1.931 2.975 3.602a8.73 8.73 0 0 1 3.393-3.445c1.496-.87 3.184-1.305 5.063-1.305zm46.182 0c2.784 0 4.924.853 6.42 2.558 1.497 1.67 2.245 4.419 2.245 8.247V46.19c0 1.218-.366 2.14-1.096 2.767s-1.671.94-2.819.94c-1.114 0-2.053-.313-2.819-.94s-1.148-1.548-1.148-2.767V34.028c0-1.67-.296-2.836-.887-3.497-.557-.696-1.427-1.044-2.61-1.044-1.462 0-2.627.505-3.497 1.514s-1.305 2.419-1.305 4.228V46.19c0 1.218-.366 2.14-1.096 2.767s-1.671.94-2.819.94c-1.113 0-2.053-.313-2.819-.94s-1.148-1.548-1.148-2.767V34.028c0-1.67-.296-2.836-.887-3.497-.557-.696-1.427-1.044-2.61-1.044-1.462 0-2.627.505-3.497 1.514s-1.305 2.419-1.305 4.228V46.19c0 1.218-.383 2.14-1.148 2.767-.731.626-1.653.94-2.767.94s-2.053-.313-2.819-.94-1.148-1.548-1.148-2.767V27.034c0-1.148.383-2.036 1.148-2.662.801-.626 1.758-.94 2.871-.94 1.044 0 1.914.313 2.61.94.696.592 1.044 1.427 1.044 2.505v.522c.835-1.322 1.914-2.331 3.236-3.027 1.357-.696 2.888-1.044 4.594-1.044 1.844 0 3.392.383 4.645 1.148 1.288.731 2.279 1.931 2.975 3.602a8.73 8.73 0 0 1 3.393-3.445c1.496-.87 3.184-1.305 5.063-1.305zm18.57 26.568c-1.148 0-2.105-.313-2.871-.94-.731-.626-1.096-1.548-1.096-2.767V27.138c0-1.218.383-2.14 1.148-2.766s1.705-.94 2.819-.94 2.036.313 2.766.94c.766.626 1.149 1.548 1.149 2.766V46.19c0 1.218-.383 2.14-1.149 2.767-.73.626-1.653.94-2.766.94zm0-30.639c-1.392 0-2.488-.348-3.289-1.044-.8-.731-1.2-1.705-1.2-2.923s.4-2.175 1.2-2.871 1.897-1.044 3.289-1.044c1.357 0 2.436.365 3.236 1.096.835.696 1.253 1.636 1.253 2.819 0 1.218-.4 2.192-1.201 2.923-.8.696-1.896 1.044-3.288 1.044zm30.514 22.705a1.98 1.98 0 0 1 1.67.835c.453.557.679 1.27.679 2.14 0 .592-.174 1.148-.522 1.67-.348.487-.835.905-1.461 1.253-1.184.626-2.558 1.148-4.124 1.566-1.566.383-3.01.574-4.332.574-2.784 0-5.22-.539-7.308-1.618a11.41 11.41 0 0 1-4.75-4.593c-1.113-2.018-1.67-4.385-1.67-7.099 0-2.61.539-4.924 1.618-6.942s2.575-3.584 4.489-4.698c1.914-1.148 4.089-1.723 6.525-1.723 2.331 0 4.367.522 6.107 1.566 1.774 1.009 3.149 2.471 4.123 4.384.974 1.879 1.462 4.089 1.462 6.629 0 .766-.192 1.357-.575 1.775-.348.383-.852.574-1.513.574h-14.615c.243 2.053.87 3.549 1.879 4.489 1.009.905 2.453 1.357 4.332 1.357 1.009 0 1.914-.122 2.714-.365s1.688-.574 2.662-.992c.487-.209.957-.383 1.41-.522.452-.174.852-.261 1.2-.261zm-8.978-13.206c-1.496 0-2.697.487-3.601 1.462-.905.939-1.444 2.314-1.618 4.124h10.074c-.105-1.844-.575-3.236-1.41-4.176-.8-.94-1.948-1.409-3.445-1.409zm13.104-11.121l-13.247-3.167c-.243-.058-.488.092-.547.336l-.31 1.287c-.115.482-.036.979.223 1.402a1.84 1.84 0 0 0 1.148.834l10.528 2.517c.994.238 1.995-.378 2.233-1.371l.308-1.29c.059-.244-.092-.489-.336-.547zm1.613-14.557a4.72 4.72 0 0 0-.862-.119c-.729-1.42-2.017-2.437-3.574-2.809a5.46 5.46 0 0 0-6.568 4.033c-.058.244-.303.394-.547.336s-.395-.304-.336-.547a6.27 6.27 0 0 1 1.311-2.593c.114-.136.139-.326.063-.486s-.238-.261-.415-.26a4.98 4.98 0 0 0-4.809 3.82c-.439 1.836.197 3.752 1.625 4.966l-.871 3.619c-.028.117-.008.241.055.344a.45.45 0 0 0 .281.204l13.245 3.167c.244.058.489-.092.547-.336l.868-3.627c1.817-.44 3.246-1.86 3.683-3.69a5 5 0 0 0-3.696-6.02zm-10.623 8.561a.45.45 0 0 1-.303.033c-.128-.031-.242-.116-.304-.243-.103-.213-1.002-2.111-.724-3.271.058-.244.303-.394.547-.336s.394.303.336.547c-.153.639.323 1.972.658 2.663.11.226.016.497-.21.607zm3.777.542c-.059.244-.303.395-.547.336s-.395-.303-.337-.547l.634-2.65c.058-.244.303-.394.547-.336s.395.303.336.547l-.633 2.65zm3.366 1.101c-.113.085-.252.11-.38.08a.45.45 0 0 1-.256-.167c-.151-.2-.113-.485.087-.636.612-.465 1.639-1.44 1.792-2.077.058-.244.303-.394.547-.336s.394.303.336.547c-.277 1.16-1.937 2.446-2.126 2.59z"/></g><defs><clipPath id="A"><path fill="#fff" d="M0 0h198.977v50H0z"/></clipPath></defs></svg>
